X: 3001
T: A New Ayre
%R: air, minuet, waltz
B: Henry Playford "Apollo's Banquet", London 1687 (5th Edition)
F: https://archive.org/details/apollosbanquetco01rugg
Z: 2017 John Chambers <jc:trillian.mit.edu>
M: 3/4
L: 1/8
K: Am
% - - - - - - - - - -
a2 |\
e2 (fe) (dc) | d2 B2 e2 | c2 A2 Bc | (dc) (dB) eA |\
^G4 a2 | e2 (fe) (dc) | d2 B2 e2 | c>B B3 A | A4 :|
|: ef |\
g2 (gf) (ge) | f2 d2 g2 | e2 c2 c'2 | a2 (bc') (ba) |\
^g4 e2 | (ag) (ae) (dc) | (gf) (ge) (dB) | (cd) B3 A | A4 |]
% - - - - - - - - - -

%%sep 1 1 500
%%sep 1 1 500

